html/dist/img/svg/tentacle_static.svg

<svg xmlns="http://www.w3.org/2000/svg" width="1227" height="459" viewBox="0 0 1227 459" fill="none">

<mask id="mask0" mask-type="alpha" maskUnits="userSpaceOnUse" x="0" y="0" width="1227" height="459">
    <path d="M-85.2745 97.3453L-36.7555 65.7622C-23.5641 57.1753 -9.74519 49.5931 4.58404 43.0798C18.5807 36.7177 33.0261 31.3928 47.8034 27.1483L54.6982 25.1678C75.67 19.144 97.0879 14.7987 118.749 12.1731L150.027 8.38184H206.113L231.119 11.716C253.054 14.6406 274.573 20.1096 295.242 28.0125L300.45 30.0038C319.993 37.4762 338.486 47.4497 355.466 59.6752C370.597 70.5696 384.419 83.1749 396.658 97.2406L421.431 125.71L456.887 178.573L479.45 222.41L499.023 253.526C502.728 259.415 506.981 264.939 511.728 270.025L518.983 277.798C527.296 286.704 537.788 293.288 549.423 296.899L550.323 297.178C562.555 300.975 575.621 301.176 587.964 297.757C602.836 293.639 615.824 284.5 624.723 271.893L633.655 259.24C639.132 251.48 643.583 243.045 646.898 234.144L664.468 186.953L679.703 146.165C682.863 137.704 686.802 129.556 691.47 121.824L694.288 117.158C701.426 105.334 710.626 94.8863 721.45 86.3085C733.204 76.9942 746.658 70.0561 761.062 65.881L762.919 65.3427C776.654 61.3615 791.048 60.1767 805.25 61.8585C823.27 63.9924 840.45 70.6787 855.173 81.2873L855.91 81.8189C869.5 91.6116 880.684 104.368 888.614 119.123L893.661 128.512C900.707 141.62 905.848 155.664 908.931 170.222L915.887 203.07L921.689 250.13L931.903 299.257C934.105 309.843 938.005 320.004 943.453 329.344L948.508 338.01C954.576 348.412 963.42 356.919 974.05 362.579L982.333 366.99C987.172 369.566 984.735 376.933 979.315 376.116C967.137 374.281 956.105 367.906 948.434 358.273L939.761 347.381C935.041 341.454 931.142 334.916 928.171 327.946L922.944 315.681C918.251 304.67 914.652 293.224 912.2 281.509L904.283 243.684L890.101 192.755L877.12 161.87C873.336 152.867 868.095 144.549 861.607 137.251L856.347 131.333C846.076 119.778 831.923 112.114 816.653 109.703C808.18 108.365 799.424 108.693 791.085 110.701C776.723 114.158 763.959 122.383 754.876 134.033L746.647 144.587C741.732 150.892 737.563 157.744 734.223 165.008L713.463 210.161L692.916 261.758C687.291 275.881 680.121 289.339 671.537 301.886L663.418 313.752C655.157 325.825 644.84 336.353 632.936 344.856L631.437 345.927C620.452 353.773 608.166 359.616 595.147 363.186C581.735 366.864 567.765 368.068 553.921 366.741L551.303 366.49C535.764 364.999 520.624 360.698 506.622 353.796L502.734 351.879C489.009 345.113 476.38 336.321 465.271 325.797L464.815 325.365C451.888 313.118 441.144 298.758 433.043 282.901L414.984 247.552L378.238 186.309L361.593 164.639C349.979 149.519 336.134 136.252 320.532 125.294C300.322 111.098 277.513 101.022 253.409 95.6391L247.207 94.2542C231.463 90.7385 215.38 88.9647 199.248 88.9647H152.606L92.4952 96.4203C77.1479 98.3238 61.9573 101.328 47.0405 105.409C16.5851 113.741 -12.4832 126.496 -39.236 143.266L-85.2745 172.126V97.3453Z" fill="#FF4878">
    </path>
</mask>
<path d="M-85.2745 97.3453L-36.7555 65.7622C-23.5641 57.1753 -9.74519 49.5931 4.58404 43.0798C18.5807 36.7177 33.0261 31.3928 47.8034 27.1483L54.6982 25.1678C75.67 19.144 97.0879 14.7987 118.749 12.1731L150.027 8.38184H206.113L231.119 11.716C253.054 14.6406 274.573 20.1096 295.242 28.0125L300.45 30.0038C319.993 37.4762 338.486 47.4497 355.466 59.6752C370.597 70.5696 384.419 83.1749 396.658 97.2406L421.431 125.71L456.887 178.573L479.45 222.41L499.023 253.526C502.728 259.415 506.981 264.939 511.728 270.025L518.983 277.798C527.296 286.704 537.788 293.288 549.423 296.899L550.323 297.178C562.555 300.975 575.621 301.176 587.964 297.757C602.836 293.639 615.824 284.5 624.723 271.893L633.655 259.24C639.132 251.48 643.583 243.045 646.898 234.144L664.468 186.953L679.703 146.165C682.863 137.704 686.802 129.556 691.47 121.824L694.288 117.158C701.426 105.334 710.626 94.8863 721.45 86.3085C733.204 76.9942 746.658 70.0561 761.062 65.881L762.919 65.3427C776.654 61.3615 791.048 60.1767 805.25 61.8585C823.27 63.9924 840.45 70.6787 855.173 81.2873L855.91 81.8189C869.5 91.6116 880.684 104.368 888.614 119.123L893.661 128.512C900.707 141.62 905.848 155.664 908.931 170.222L915.887 203.07L921.689 250.13L931.903 299.257C934.105 309.843 938.005 320.004 943.453 329.344L948.508 338.01C954.576 348.412 963.42 356.919 974.05 362.579L982.333 366.99C987.172 369.566 984.735 376.933 979.315 376.116C967.137 374.281 956.105 367.906 948.434 358.273L939.761 347.381C935.041 341.454 931.142 334.916 928.171 327.946L922.944 315.681C918.251 304.67 914.652 293.224 912.2 281.509L904.283 243.684L890.101 192.755L877.12 161.87C873.336 152.867 868.095 144.549 861.607 137.251L856.347 131.333C846.076 119.778 831.923 112.114 816.653 109.703C808.18 108.365 799.424 108.693 791.085 110.701C776.723 114.158 763.959 122.383 754.876 134.033L746.647 144.587C741.732 150.892 737.563 157.744 734.223 165.008L713.463 210.161L692.916 261.758C687.291 275.881 680.121 289.339 671.537 301.886L663.418 313.752C655.157 325.825 644.84 336.353 632.936 344.856L631.437 345.927C620.452 353.773 608.166 359.616 595.147 363.186C581.735 366.864 567.765 368.068 553.921 366.741L551.303 366.49C535.764 364.999 520.624 360.698 506.622 353.796L502.734 351.879C489.009 345.113 476.38 336.321 465.271 325.797L464.815 325.365C451.888 313.118 441.144 298.758 433.043 282.901L414.984 247.552L378.238 186.309L361.593 164.639C349.979 149.519 336.134 136.252 320.532 125.294C300.322 111.098 277.513 101.022 253.409 95.6391L247.207 94.2542C231.463 90.7385 215.38 88.9647 199.248 88.9647H152.606L92.4952 96.4203C77.1479 98.3238 61.9573 101.328 47.0405 105.409C16.5851 113.741 -12.4832 126.496 -39.236 143.266L-85.2745 172.126V97.3453Z" fill="#FF4878">
    
         
    </path>
    <path d="M975.123 374.55H977.775L975.074 371.85C972.155 368.93 968.94 366.322 965.482 364.067C959.123 359.92 953.615 354.597 949.252 348.384L942.039 338.11C937.081 331.049 932.869 323.492 929.47 315.562L928.179 312.549C923.438 301.488 919.991 289.916 917.906 278.063L908.796 226.278L901.668 200.284C899.118 190.984 895.783 181.917 891.699 173.181L885.529 159.984C878.361 144.653 867.715 131.205 854.437 120.712L847.069 114.889C838.904 108.436 829.372 103.935 819.201 101.732C804.163 98.4734 788.465 100.392 774.654 107.176L771.673 108.641C763.445 112.682 755.996 118.147 749.67 124.781L745.893 128.743C737.232 137.826 730.212 148.344 725.146 159.827L713.463 186.309L697.346 229.501L687.746 253.133C682.983 264.856 677.086 276.085 670.136 286.66L664.824 294.744C655.636 308.726 644.022 320.952 630.53 330.846L626.964 333.461C617.218 340.608 606.389 346.145 594.889 349.86L593.509 350.306C578.264 355.231 562.105 356.658 546.233 354.479C540.401 353.679 534.645 352.396 529.025 350.646L527.907 350.298C508.386 344.217 490.729 333.279 476.592 318.509L467.771 309.293C459.251 300.391 451.723 290.591 445.32 280.064L416.918 233.369L404.095 208.915C394.202 190.05 381.995 172.492 367.756 156.649L364.823 153.385C350.63 137.593 334.276 123.887 316.246 112.673C299.201 102.072 280.784 93.7872 261.547 88.057C240.627 81.8255 218.878 78.6499 197.05 78.6499H153.895L115.121 82.619C86.4831 85.5504 58.2745 91.7473 31.045 101.089C-0.37796 111.869 -30.2408 126.749 -57.77 145.343L-89.7871 166.969L-85.2745 246.907L-9.20425 212.095L60.4193 185.664L63.0407 184.981C102.391 174.734 142.887 169.547 183.55 169.547L206.216 171.337C223.605 172.71 240.565 177.426 256.167 185.227C268.708 191.497 280.2 199.675 290.233 209.47L292.467 211.65C298.922 217.952 304.817 224.803 310.085 232.126L328.599 257.866L363.411 319.109C377.502 341.74 395.137 361.962 415.641 379L419.065 381.846C426.649 388.148 434.671 393.905 443.07 399.074L446.075 400.923C457.97 408.243 470.681 414.143 483.949 418.503C500.629 423.983 518.024 426.975 535.576 427.384L564.546 428.057H568.085C588.337 428.057 608.423 424.402 627.376 417.266L630.188 416.208C645.63 410.394 660.008 402.076 672.745 391.587C688.965 378.229 702.202 361.616 711.599 342.822L719.045 327.929C725.196 315.628 730.224 302.796 734.069 289.591L743.117 258.511L759.234 214.029L770.186 186.446C774.332 176.003 782.297 167.53 792.464 162.746C803.359 157.618 815.88 157.157 827.126 161.464C835.393 164.63 842.526 170.204 847.593 177.463L855.816 189.242C861.022 196.699 865.082 204.895 867.86 213.555L874.629 234.658L877.515 249.355C880.313 263.599 884.305 277.583 889.447 291.159L893.516 301.902C896.39 309.49 899.951 316.799 904.155 323.739L914.104 340.168C921.564 352.486 932.578 362.258 945.696 368.198C954.942 372.385 964.974 374.55 975.123 374.55Z" fill="#C03B5E">
    </path>
    <ellipse cx="19.2272" cy="147.412" rx="42.1466" ry="20.4753" transform="rotate(173.775 19.2272 147.412)" fill="#EE6D8F"/>
    <ellipse cx="103.323" cy="125.066" rx="35.4121" ry="18.1869" transform="rotate(173.775 103.323 125.066)" fill="#EE6D8F"/>
    <ellipse cx="184.151" cy="119.041" rx="35.4121" ry="18.187" transform="rotate(-175.26 184.151 119.041)" fill="#EE6D8F"/>
    <ellipse cx="276.784" cy="136.617" rx="35.4121" ry="18.187" transform="rotate(-159.146 276.784 136.617)" fill="#EE6D8F"/>
    <ellipse cx="347.174" cy="195.677" rx="35.0973" ry="20.4382" transform="rotate(-132.607 347.174 195.677)" fill="#EE6D8F"/>
    <ellipse cx="391.328" cy="277.636" rx="35.0973" ry="20.4382" transform="rotate(-126.108 391.328 277.636)" fill="#EE6D8F"/>
    <ellipse cx="437.743" cy="340.345" rx="35.0973" ry="20.4382" transform="rotate(-138.161 437.743 340.345)" fill="#EE6D8F"/>
    <ellipse cx="500.795" cy="377.005" rx="27.7053" ry="17.8908" transform="rotate(-159.941 500.795 377.005)" fill="#EE6D8F"/>
    <ellipse cx="567.085" cy="389.617" rx="29.6186" ry="15.5846" transform="rotate(177.224 567.085 389.617)" fill="#EE6D8F"/>
<ellipse cx="637.733" cy="367.627" rx="29.6186" ry="15.5846" transform="rotate(144.748 637.733 367.627)" fill="#EE6D8F"/>
<ellipse cx="687.528" cy="308.95" rx="27.4781" ry="13.7026" transform="rotate(123.811 687.528 308.95)" fill="#EE6D8F"/>
<ellipse cx="717.288" cy="247.468" rx="23.5672" ry="13.3665" transform="rotate(114.592 717.288 247.468)" fill="#EE6D8F"/>
<ellipse cx="744.372" cy="181.715" rx="23.5672" ry="13.3665" transform="rotate(106.622 744.372 181.715)" fill="#EE6D8F"/>

<ellipse cx="185.58" cy="163.687" rx="35.4121" ry="16.4117" transform="rotate(-175.26 185.58 163.687)" fill="#EE6D8F"/>
<ellipse cx="260.065" cy="178.95" rx="32.8029" ry="17.4586" transform="rotate(-152.379 260.065 178.95)" fill="#EE6D8F"/>
<ellipse cx="317.402" cy="229.365" rx="32.8029" ry="17.4586" transform="rotate(-132.607 317.402 229.365)" fill="#EE6D8F"/>


<ellipse cx="787.999" cy="133.244" rx="23.5672" ry="13.3665" transform="rotate(166.518 787.999 133.244)" fill="#EE6D8F"/>
<ellipse cx="837.862" cy="143.03" rx="23.5672" ry="13.3665" transform="rotate(-138.018 837.862 143.03)" fill="#EE6D8F"/>
<ellipse cx="875.299" cy="186.196" rx="19.0543" ry="9.24232" transform="rotate(-113.571 875.299 186.196)" fill="#EE6D8F"/>
<ellipse cx="893.12" cy="244.467" rx="18.3868" ry="8.28679" transform="rotate(-98.6752 893.12 244.467)" fill="#EE6D8F"/>
<ellipse cx="897.091" cy="295.503" rx="21.6722" ry="8.98383" transform="rotate(-115.159 897.091 295.503)" fill="#EE6D8F"/>
<ellipse cx="920.459" cy="343.188" rx="21.6722" ry="6.73502" transform="rotate(-132.942 920.459 343.188)" fill="#EE6D8F"/>
<ellipse cx="875.605" cy="237.561" rx="17.5538" ry="6.76897" transform="rotate(-98.6752 875.605 237.561)" fill="#EE6D8F"/>
<ellipse cx="854.817" cy="191.553" rx="15.7146" ry="7.7259" transform="rotate(-113.571 854.817 191.553)" fill="#EE6D8F"/>
<ellipse xmlns="http://www.w3.org/2000/svg" cx="758.875" cy="212.485" rx="21.6529" ry="8.18626" transform="rotate(108.61 763.875 208.485)" fill="#EE6D8F"/>
<ellipse cx="800.417" cy="163.707" rx="21.6529" ry="10.1084" transform="rotate(160.616 800.417 163.707)" fill="#EE6D8F"/>
<ellipse cx="712.833" cy="336.365" rx="27.4781" ry="13.9098" transform="rotate(117.822 712.833 336.365)" fill="#EE6D8F"/>
<ellipse cx="740.341" cy="268.039" rx="27.4781" ry="10.9002" transform="rotate(108.31 740.341 268.039)" fill="#EE6D8F"/>
<ellipse cx="544.068" cy="423.92" rx="26.2717" ry="12.6071" transform="rotate(179.964 544.068 423.92)" fill="#EE6D8F"/>
<ellipse cx="616.37" cy="418.33" rx="26.2717" ry="15.4095" transform="rotate(159.017 616.37 418.33)" fill="#EE6D8F"/>
<ellipse cx="673.153" cy="387.193" rx="26.2717" ry="15.4095" transform="rotate(139.61 673.153 387.193)" fill="#EE6D8F"/>
<ellipse cx="474.493" cy="411.516" rx="24.707" ry="16.1244" transform="rotate(-154.252 474.493 411.516)" fill="#EE6D8F"/>
<ellipse cx="411.013" cy="375.902" rx="32.2395" ry="17.9771" transform="rotate(-138.161 411.013 375.902)" fill="#EE6D8F"/>
<ellipse cx="356.822" cy="302.607" rx="31.5413" ry="16.8656" transform="rotate(-126.108 356.822 302.607)" fill="#EE6D8F"/>
<ellipse cx="105.16" cy="174.639" rx="32.9611" ry="16.4117" transform="rotate(173.723 105.16 174.639)" fill="#EE6D8F"/>
<ellipse cx="29.0847" cy="192.691" rx="32.9611" ry="16.4117" transform="rotate(164.281 29.0847 192.691)" fill="#EE6D8F"/> 
</svg>

<svg xmlns="http://www.w3.org/2000/svg" width="1227" height="459" viewBox="0 0 1227 459" fill="none"><mask id="mask0" maskUnits="userSpaceOnUse" x="0" y="0" width="1227" height="459"><path d="M-85.275 97.345l48.52-31.583a313.791 313.791 0 0184.558-38.614l6.895-1.98a411.271 411.271 0 0164.051-12.995l31.278-3.791h56.086l25.006 3.334a285.016 285.016 0 0164.123 16.297l5.208 1.99a242.19 242.19 0 0196.208 67.238l24.773 28.469 35.456 52.863 22.563 43.837 19.573 31.116a110.124 110.124 0 0012.705 16.499l7.255 7.773a70.04 70.04 0 0030.44 19.101l.9.279a66.821 66.821 0 0074.4-25.285l8.932-12.653a110.249 110.249 0 0013.243-25.096l17.57-47.191 15.235-40.788a145.78 145.78 0 0111.767-24.341l2.818-4.666a115.578 115.578 0 0166.774-51.277l1.857-.538a106.896 106.896 0 0192.254 15.944l.737.532a110.4 110.4 0 0132.704 37.304l5.047 9.389a156.63 156.63 0 0115.27 41.71l6.956 32.848 5.802 47.06 10.214 49.127a100.225 100.225 0 0011.55 30.087l5.055 8.666a64.861 64.861 0 0025.542 24.569l8.283 4.411c4.839 2.576 2.402 9.943-3.018 9.126a48.765 48.765 0 01-30.881-17.843l-8.673-10.892a84.198 84.198 0 01-11.59-19.435l-5.227-12.265a182.528 182.528 0 01-10.744-34.172l-7.917-37.825-14.182-50.929-12.981-30.885a88.894 88.894 0 00-15.513-24.619l-5.26-5.918c-10.271-11.555-24.424-19.219-39.694-21.63-8.473-1.338-17.229-1.01-25.568.998a65.286 65.286 0 00-36.209 23.332l-8.229 10.554a103.631 103.631 0 00-12.424 20.421l-20.76 45.153-20.547 51.597a206.177 206.177 0 01-21.379 40.128l-8.119 11.866a124.903 124.903 0 01-30.482 31.104l-1.499 1.071a114.566 114.566 0 01-77.516 20.814l-2.618-.251a128.907 128.907 0 01-44.681-12.694l-3.888-1.917a152.552 152.552 0 01-37.463-26.082l-.456-.432a156.693 156.693 0 01-31.772-42.464l-18.059-35.349-36.746-61.243-16.645-21.67a188.098 188.098 0 00-108.184-69l-6.202-1.385a220.06 220.06 0 00-47.959-5.29h-46.642l-60.11 7.456a322.829 322.829 0 00-131.732 46.846l-46.039 28.86v-74.78z" fill="#FF4878"/></mask><path d="M-85.275 97.345l48.52-31.583a313.791 313.791 0 0184.558-38.614l6.895-1.98a411.271 411.271 0 0164.051-12.995l31.278-3.791h56.086l25.006 3.334a285.016 285.016 0 0164.123 16.297l5.208 1.99a242.19 242.19 0 0196.208 67.238l24.773 28.469 35.456 52.863 22.563 43.837 19.573 31.116a110.124 110.124 0 0012.705 16.499l7.255 7.773a70.04 70.04 0 0030.44 19.101l.9.279a66.821 66.821 0 0074.4-25.285l8.932-12.653a110.249 110.249 0 0013.243-25.096l17.57-47.191 15.235-40.788a145.78 145.78 0 0111.767-24.341l2.818-4.666a115.578 115.578 0 0166.774-51.277l1.857-.538a106.896 106.896 0 0192.254 15.944l.737.532a110.4 110.4 0 0132.704 37.304l5.047 9.389a156.63 156.63 0 0115.27 41.71l6.956 32.848 5.802 47.06 10.214 49.127a100.225 100.225 0 0011.55 30.087l5.055 8.666a64.861 64.861 0 0025.542 24.569l8.283 4.411c4.839 2.576 2.402 9.943-3.018 9.126a48.765 48.765 0 01-30.881-17.843l-8.673-10.892a84.198 84.198 0 01-11.59-19.435l-5.227-12.265a182.528 182.528 0 01-10.744-34.172l-7.917-37.825-14.182-50.929-12.981-30.885a88.894 88.894 0 00-15.513-24.619l-5.26-5.918c-10.271-11.555-24.424-19.219-39.694-21.63-8.473-1.338-17.229-1.01-25.568.998a65.286 65.286 0 00-36.209 23.332l-8.229 10.554a103.631 103.631 0 00-12.424 20.421l-20.76 45.153-20.547 51.597a206.177 206.177 0 01-21.379 40.128l-8.119 11.866a124.903 124.903 0 01-30.482 31.104l-1.499 1.071a114.566 114.566 0 01-77.516 20.814l-2.618-.251a128.907 128.907 0 01-44.681-12.694l-3.888-1.917a152.552 152.552 0 01-37.463-26.082l-.456-.432a156.693 156.693 0 01-31.772-42.464l-18.059-35.349-36.746-61.243-16.645-21.67a188.098 188.098 0 00-108.184-69l-6.202-1.385a220.06 220.06 0 00-47.959-5.29h-46.642l-60.11 7.456a322.829 322.829 0 00-131.732 46.846l-46.039 28.86v-74.78z" fill="#FF4878"/><path d="M975.123 374.55h2.652l-2.701-2.7a59.577 59.577 0 00-9.592-7.783 59.643 59.643 0 01-16.23-15.683l-7.213-10.274a124.789 124.789 0 01-12.569-22.548l-1.291-3.013a156.246 156.246 0 01-10.273-34.486l-9.11-51.785-7.128-25.994a170.39 170.39 0 00-9.969-27.103l-6.17-13.197a108.773 108.773 0 00-31.092-39.272l-7.368-5.823a68.254 68.254 0 00-72.415-7.713l-2.981 1.465a77.788 77.788 0 00-22.003 16.14l-3.777 3.962a108.515 108.515 0 00-20.747 31.084l-11.683 26.482-16.117 43.192-9.6 23.632a194.009 194.009 0 01-17.61 33.527l-5.312 8.084a140.344 140.344 0 01-34.294 36.102l-3.566 2.615a112.957 112.957 0 01-32.075 16.399l-1.38.446a106.616 106.616 0 01-64.484.34l-1.118-.348a120.74 120.74 0 01-51.315-31.789l-8.821-9.216a170.165 170.165 0 01-22.451-29.229l-28.402-46.695-12.823-24.454a256.169 256.169 0 00-36.339-52.266l-2.933-3.264a225.294 225.294 0 00-48.577-40.712 225.536 225.536 0 00-54.699-24.616 226.058 226.058 0 00-64.497-9.407h-43.155l-38.774 3.969A377.567 377.567 0 00-57.77 145.343l-32.017 21.626 4.513 79.938 76.07-34.812 69.623-26.431 2.622-.683a478.208 478.208 0 01120.509-15.434l22.666 1.79a135.55 135.55 0 0184.017 38.133l2.234 2.18a155.637 155.637 0 0117.618 20.476l18.514 25.74 34.812 61.243A248.968 248.968 0 00415.641 379l3.424 2.846a208.773 208.773 0 0024.005 17.228l3.005 1.849a178.723 178.723 0 0037.874 17.58 178.742 178.742 0 0051.627 8.881l28.97.673h3.539c20.252 0 40.338-3.655 59.291-10.791l2.812-1.058a150.183 150.183 0 0081.411-73.386l7.446-14.893a228.646 228.646 0 0015.024-38.338l9.048-31.08 16.117-44.482 10.952-27.583a44.23 44.23 0 0122.278-23.7 44.246 44.246 0 0134.662-1.282 44.273 44.273 0 0120.467 15.999l8.223 11.779a91.07 91.07 0 0112.044 24.313l6.769 21.103 2.886 14.697a258.93 258.93 0 0011.932 41.804l4.069 10.743a133.218 133.218 0 0010.639 21.837l9.949 16.429a71.336 71.336 0 0061.019 34.382z" fill="#C03B5E"/><ellipse cx="19.227" cy="147.412" rx="42.147" ry="20.475" transform="rotate(173.775 19.227 147.412)" fill="#EE6D8F"/><ellipse cx="103.323" cy="125.066" rx="35.412" ry="18.187" transform="rotate(173.775 103.323 125.066)" fill="#EE6D8F"/><ellipse cx="184.151" cy="119.041" rx="35.412" ry="18.187" transform="rotate(-175.26 184.151 119.041)" fill="#EE6D8F"/><ellipse cx="276.784" cy="136.617" rx="35.412" ry="18.187" transform="rotate(-159.146 276.784 136.617)" fill="#EE6D8F"/><ellipse cx="347.174" cy="195.677" rx="35.097" ry="20.438" transform="rotate(-132.607 347.174 195.677)" fill="#EE6D8F"/><ellipse cx="391.328" cy="277.636" rx="35.097" ry="20.438" transform="rotate(-126.108 391.328 277.636)" fill="#EE6D8F"/><ellipse cx="437.743" cy="340.345" rx="35.097" ry="20.438" transform="rotate(-138.161 437.743 340.345)" fill="#EE6D8F"/><ellipse cx="500.795" cy="377.005" rx="27.705" ry="17.891" transform="rotate(-159.941 500.795 377.005)" fill="#EE6D8F"/><ellipse cx="567.085" cy="389.617" rx="29.619" ry="15.585" transform="rotate(177.224 567.085 389.617)" fill="#EE6D8F"/><ellipse cx="637.733" cy="367.627" rx="29.619" ry="15.585" transform="rotate(144.748 637.733 367.627)" fill="#EE6D8F"/><ellipse cx="687.528" cy="308.95" rx="27.478" ry="13.703" transform="rotate(123.811 687.528 308.95)" fill="#EE6D8F"/><ellipse cx="717.288" cy="247.468" rx="23.567" ry="13.367" transform="rotate(114.592 717.288 247.468)" fill="#EE6D8F"/><ellipse cx="744.372" cy="181.715" rx="23.567" ry="13.367" transform="rotate(106.622 744.372 181.715)" fill="#EE6D8F"/><ellipse cx="185.58" cy="163.687" rx="35.412" ry="16.412" transform="rotate(-175.26 185.58 163.687)" fill="#EE6D8F"/><ellipse cx="260.065" cy="178.95" rx="32.803" ry="17.459" transform="rotate(-152.379 260.065 178.95)" fill="#EE6D8F"/><ellipse cx="317.402" cy="229.365" rx="32.803" ry="17.459" transform="rotate(-132.607 317.402 229.365)" fill="#EE6D8F"/><ellipse cx="787.999" cy="133.244" rx="23.567" ry="13.367" transform="rotate(166.518 787.999 133.244)" fill="#EE6D8F"/><ellipse cx="837.862" cy="143.03" rx="23.567" ry="13.367" transform="rotate(-138.018 837.862 143.03)" fill="#EE6D8F"/><ellipse cx="875.299" cy="186.196" rx="19.054" ry="9.242" transform="rotate(-113.571 875.299 186.196)" fill="#EE6D8F"/><ellipse cx="893.12" cy="244.467" rx="18.387" ry="8.287" transform="rotate(-98.675 893.12 244.467)" fill="#EE6D8F"/><ellipse cx="897.091" cy="295.503" rx="21.672" ry="8.984" transform="rotate(-115.159 897.091 295.503)" fill="#EE6D8F"/><ellipse cx="920.459" cy="343.188" rx="21.672" ry="6.735" transform="rotate(-132.942 920.459 343.188)" fill="#EE6D8F"/><ellipse cx="875.605" cy="237.561" rx="17.554" ry="6.769" transform="rotate(-98.675 875.605 237.561)" fill="#EE6D8F"/><ellipse cx="854.817" cy="191.553" rx="15.715" ry="7.726" transform="rotate(-113.571 854.817 191.553)" fill="#EE6D8F"/><ellipse xmlns="http://www.w3.org/2000/svg" cx="758.875" cy="212.485" rx="21.653" ry="8.186" transform="rotate(108.61 763.875 208.485)" fill="#EE6D8F"/><ellipse cx="800.417" cy="163.707" rx="21.653" ry="10.108" transform="rotate(160.616 800.417 163.707)" fill="#EE6D8F"/><ellipse cx="712.833" cy="336.365" rx="27.478" ry="13.91" transform="rotate(117.822 712.833 336.365)" fill="#EE6D8F"/><ellipse cx="740.341" cy="268.039" rx="27.478" ry="10.9" transform="rotate(108.31 740.341 268.039)" fill="#EE6D8F"/><ellipse cx="544.068" cy="423.92" rx="26.272" ry="12.607" transform="rotate(179.964 544.068 423.92)" fill="#EE6D8F"/><ellipse cx="616.37" cy="418.33" rx="26.272" ry="15.409" transform="rotate(159.017 616.37 418.33)" fill="#EE6D8F"/><ellipse cx="673.153" cy="387.193" rx="26.272" ry="15.409" transform="rotate(139.61 673.153 387.193)" fill="#EE6D8F"/><ellipse cx="474.493" cy="411.516" rx="24.707" ry="16.124" transform="rotate(-154.252 474.493 411.516)" fill="#EE6D8F"/><ellipse cx="411.013" cy="375.902" rx="32.239" ry="17.977" transform="rotate(-138.161 411.013 375.902)" fill="#EE6D8F"/><ellipse cx="356.822" cy="302.607" rx="31.541" ry="16.866" transform="rotate(-126.108 356.822 302.607)" fill="#EE6D8F"/><ellipse cx="105.16" cy="174.639" rx="32.961" ry="16.412" transform="rotate(173.723 105.16 174.639)" fill="#EE6D8F"/><ellipse cx="29.085" cy="192.691" rx="32.961" ry="16.412" transform="rotate(164.281 29.085 192.691)" fill="#EE6D8F"/></svg>
